X:228
T:Woods of Old Limerick, The
R:jig
H:Also played in D, #349
D:Patrick Street: Irish Times
Z:id:hn-jig-228
M:6/8
K:G
BGG ABc|dgg fdc|B2G ABc|ADD ABc|
BGG ABc|dgg fdc|B2G ABc|1 AGF G2A:|2 AGF Gga||
|:bgf gag|fd^c dga|bgf gab|c'af g2a|
bag afd|~g3 fdc|B2G ABc|1 AGF Gga:|2 AGF G2A||

